X:1
T:Tunisia, 76.76 D
T:Tunisia, 76.76 D
T:Robert Lowry, 1880
T:Public Domain Courtesy of the Cyber Hymnal™
C:Robert Lowry, 1880
Z:Public Domain
Z:Courtesy of the Cyber Hymnal™
%%score ( 1 2 ) ( 3 4 )
L:1/8
Q:1/4=100
M:3/4
K:G
V:1 treble 
V:2 treble 
V:3 bass 
V:4 bass 
V:1
 [GB]2 | [Gd]3 [GB] [DA][DG] | [DA]2 [DG]2 [EG]2 | [EG]3 [EG] [DF][CE] | [B,D]4 [DB]2 | %5
 [DA]3 [DG] [DA][DB] | [DA]2 [DG]2 [FA]2 | [GB]3 [FA] [GB][Gc] | [FA]4 [Fd]2 | %9
 [FA]3 [GB] [Ac][GB] | [GB]2 [FA]2 [FA]2 | [EG]3 [GB] [FA][EG] | [^DF]4 (GF) | E3 [EG] [DF][CE] | %14
 [B,D]2 [DG]2 [GB]2 | [FA]3 G [GB]>[FA] | G4 |] %17
V:2
 x2 | x6 | x6 | x6 | x6 | x6 | x6 | x6 | x6 | x6 | x6 | x6 | x4 ^D2 | E3 x3 | x6 | x3 G x2 | G4 |] %17
V:3
 G,2 | [G,B,]3 [G,D] [F,C][G,B,] | [D,C]2 [G,B,]2 [E,B,]2 | [C,C]3 [C,C] [C,G,][C,G,] | %4
 [G,,G,]4 G,2 | [D,C]3 [D,B,] [D,C][D,D] | [G,,C]2 [G,,B,]2 [D,D]2 | [G,D]3 [D,D] [G,D][C,E] | %8
 [D,D]4 [D,A,]2 | [D,D]3 [D,D] [D,D][D,D] | [D,D]2 [D,D]2 [D,C]2 | [E,B,]3 [E,B,] [^D,B,][E,B,] | %12
 [B,,B,]4 (B,A,) | [C,G,]3 [C,G,] [C,G,][C,G,] | [G,,G,]2 [G,,B,]2 [G,D]2 | %15
 [D,C]3 [D,B,] [D,D]>[D,C] | [G,,B,]4 |] %17
V:4
 G,2 | x6 | x6 | x6 | x4 G,2 | x6 | x6 | x6 | x6 | x6 | x6 | x6 | x4 B,,2 | x6 | x6 | x6 | x4 |] %17

